public/assets/img/stop.svg

<?xml version="1.0" encoding="UTF-8" standalone="no"?>
<!-- drawn by Useddenim -->

<svg
   xmlns:dc="http://purl.org/dc/elements/1.1/"
   xmlns:cc="http://creativecommons.org/ns#"
   xmlns:rdf="http://www.w3.org/1999/02/22-rdf-syntax-ns#"
   xmlns:svg="http://www.w3.org/2000/svg"
   xmlns="http://www.w3.org/2000/svg"
   xmlns:sodipodi="http://sodipodi.sourceforge.net/DTD/sodipodi-0.dtd"
   xmlns:inkscape="http://www.inkscape.org/namespaces/inkscape"
   width="1000"
   height="1000"
   version="1.1"
   id="svg8"
   sodipodi:docname="stop.svg"
   inkscape:version="0.92.4 (5da689c313, 2019-01-14)">
  <metadata
     id="metadata14">
    <rdf:RDF>
      <cc:Work
         rdf:about="">
        <dc:format>image/svg+xml</dc:format>
        <dc:type
           rdf:resource="http://purl.org/dc/dcmitype/StillImage" />
      </cc:Work>
    </rdf:RDF>
  </metadata>
  <defs
     id="defs12" />
  <sodipodi:namedview
     pagecolor="#ffffff"
     bordercolor="#666666"
     borderopacity="1"
     objecttolerance="10"
     gridtolerance="10"
     guidetolerance="10"
     inkscape:pageopacity="0"
     inkscape:pageshadow="2"
     inkscape:window-width="1920"
     inkscape:window-height="996"
     id="namedview10"
     showgrid="false"
     inkscape:zoom="0.3337544"
     inkscape:cx="599.28584"
     inkscape:cy="554.60721"
     inkscape:window-x="-8"
     inkscape:window-y="-8"
     inkscape:window-maximized="1"
     inkscape:current-layer="svg8" />
  <title
     id="title2">STOP</title>
  <g
     id="g823"
     transform="matrix(0.65412111,0,0,0.65412111,172.93945,172.93944)">
    <path
       id="path4"
       d="m 293,0 h 414 l 293,293 V 707 L 707,1000 H 293 L 0,707 V 293 Z"
       inkscape:connector-curvature="0"
       style="fill:#8b0000;stroke:none" />
    <path
       id="path6"
       d="m 83.33,583.33 a 66.665,66.665 0 0 0 133.33,0 V 566.66 A 66.66,66.66 0 0 0 150,500 66.66,66.66 0 0 1 83.33,433.33 a 66.665,66.665 0 0 1 133.33,0 M 275,366.66 h 200 m -100,0 V 675 M 533.33,433.33 a 66.665,66.665 0 0 1 133.33,0 v 150 a 66.665,66.665 0 0 1 -133.33,0 z M 766.66,675 V 366.66 h 66.67 A 66.66,66.66 0 0 1 900,433.33 66.66,66.66 0 0 1 833.33,500 h -66.67"
       inkscape:connector-curvature="0"
       style="fill:none;stroke:#ffffff;stroke-width:50" />
  </g>
</svg>

<?xml version="1.0" encoding="UTF-8" standalone="no"?>
<!-- drawn by Useddenim -->
<svg xmlns="http://www.w3.org/2000/svg" width="1000" height="1000">
<title>STOP</title>
<path d="M 293,0 707,0 1000,293 1000,707 707,1000 293,1000 0,707 0,293 z" stroke="none" fill="darkred" />
<path d="M 83.33,583.33 A 66.66 66.66 0,0,0 216.66,583.33 V 566.66 A 66.66 66.66 0,0,0 150,500 A 66.66 66.66 0,0,1 83.33,433.33 A 66.66 66.66 0,0,1 216.66,433.33
         M 275,366.66 H 475 M 375,366.66 V 675 
         M 533.33,433.33 A 66.66 66.66 0,0,1 666.66,433.33 V 583.33 A 66.66 66.66 0,0,1 533.33,583.33 Z
         M 766.66,675 V 366.66 H 833.33 A 66.66 66.66 0,0,1 900,433.33 A 66.66 66.66 0,0,1 833.33,500 H 766.66" 
      stroke="white" stroke-width="50" fill="none" />
</svg>
